assets/images/plain_logo.svg

<svg fill="none" height="21" viewBox="0 0 99 21" width="99" xmlns="http://www.w3.org/2000/svg"><path d="m19.8706.0639997v19.9360003h-3.192v-12.376l-5.292 12.376h-2.38005l-5.32-12.236v12.236h-3.191999v-19.9360003h2.855999l6.86005 15.5960003 6.804-15.5960003zm16.6517 5.7960003v14.14h-3.416v-2.184c-.448.784-1.0454 1.3813-1.792 1.792-.7467.4107-1.6054.616-2.576.616-3.4534 0-5.18-1.9413-5.18-5.824v-8.54h3.472v8.568c0 1.0267.2053 1.7827.616 2.268.4293.4853 1.0826.728 1.96.728 1.0266 0 1.848-.336 2.464-1.008s.924-1.568.924-2.688v-7.868zm15.2263 11.48v2.66h-12.292v-2.436l7.812-9.072h-7.644v-2.632h11.816v2.38l-7.84 9.1zm19.697-17.2760003v19.9360003h-2.688l-10.752-13.972v13.972h-3.36v-19.9360003h2.688l10.724 13.9440003v-13.9440003zm16.1274 13.0480003h-9.744c.0746 1.512.448 2.632 1.12 3.36.6906.7093 1.708 1.064 3.052 1.064 1.5493 0 2.9866-.504 4.312-1.512l1.008 2.408c-.672.5413-1.5027.98-2.492 1.316-.9707.3173-1.96.476-2.968.476-2.3147 0-4.1347-.6533-5.46-1.96-1.3254-1.3067-1.988-3.0987-1.988-5.376 0-1.4373.2893-2.716.868-3.836.5786-1.12 1.3906-1.988 2.436-2.604 1.0453-.63467 2.2306-.952 3.556-.952 1.9413 0 3.472.63467 4.592 1.904 1.1386 1.25067 1.708 2.9773 1.708 5.18zm-6.216-5.096c-.9334 0-1.6987.28-2.296.84-.5787.54133-.952 1.3347-1.12 2.38h6.58c-.112-1.064-.4387-1.86667-.98-2.408-.5227-.54133-1.2507-.812-2.184-.812zm13.1071.476v6.328c0 1.6613.7746 2.492 2.324 2.492.4293 0 .896-.0747 1.4-.224v2.772c-.616.224-1.3627.336-2.24.336-1.6054 0-2.8374-.448-3.696-1.344-.8587-.896-1.288-2.184-1.288-3.864v-6.496h-2.716v-2.632h2.716v-3.444l3.5-1.176v4.62h3.752v2.632z" fill="#0c0c0e"/></svg>

<svg width="99" height="21" viewBox="0 0 99 21" fill="none" xmlns="http://www.w3.org/2000/svg">
<path d="M19.8706 0.0639997V20H16.6786V7.624L11.3866 20H9.00655L3.68655 7.764V20H0.494551V0.0639997H3.35055L10.2106 15.66L17.0146 0.0639997H19.8706ZM36.5223 5.86V20H33.1063V17.816C32.6583 18.6 32.0609 19.1973 31.3143 19.608C30.5676 20.0187 29.7089 20.224 28.7383 20.224C25.2849 20.224 23.5583 18.2827 23.5583 14.4V5.86H27.0303V14.428C27.0303 15.4547 27.2356 16.2107 27.6463 16.696C28.0756 17.1813 28.7289 17.424 29.6063 17.424C30.6329 17.424 31.4543 17.088 32.0703 16.416C32.6863 15.744 32.9943 14.848 32.9943 13.728V5.86H36.5223ZM51.7486 17.34V20H39.4566V17.564L47.2686 8.492H39.6246V5.86H51.4406V8.24L43.6006 17.34H51.7486ZM71.4456 0.0639997V20H68.7576L58.0056 6.028V20H54.6456V0.0639997H57.3336L68.0576 14.008V0.0639997H71.4456ZM87.573 13.112H77.829C77.9036 14.624 78.277 15.744 78.949 16.472C79.6396 17.1813 80.657 17.536 82.001 17.536C83.5503 17.536 84.9876 17.032 86.313 16.024L87.321 18.432C86.649 18.9733 85.8183 19.412 84.829 19.748C83.8583 20.0653 82.869 20.224 81.861 20.224C79.5463 20.224 77.7263 19.5707 76.401 18.264C75.0756 16.9573 74.413 15.1653 74.413 12.888C74.413 11.4507 74.7023 10.172 75.281 9.052C75.8596 7.932 76.6716 7.064 77.717 6.448C78.7623 5.81333 79.9476 5.496 81.273 5.496C83.2143 5.496 84.745 6.13067 85.865 7.4C87.0036 8.65067 87.573 10.3773 87.573 12.58V13.112ZM81.357 8.016C80.4236 8.016 79.6583 8.296 79.061 8.856C78.4823 9.39733 78.109 10.1907 77.941 11.236H84.521C84.409 10.172 84.0823 9.36933 83.541 8.828C83.0183 8.28667 82.2903 8.016 81.357 8.016ZM94.4641 8.492V14.82C94.4641 16.4813 95.2387 17.312 96.7881 17.312C97.2174 17.312 97.6841 17.2373 98.1881 17.088V19.86C97.5721 20.084 96.8254 20.196 95.9481 20.196C94.3427 20.196 93.1107 19.748 92.2521 18.852C91.3934 17.956 90.9641 16.668 90.9641 14.988V8.492H88.2481V5.86H90.9641V2.416L94.4641 1.24V5.86H98.2161V8.492H94.4641Z" fill="#0C0C0E"/>
</svg>
